X: 201
M: C|
L: 1/8
K: A
V: 1
e | c/B/A eA fAeA | c/B/A eA fBBd | c/B/A eA fAeA | EFAB cAAe |
y | c/B/A eA fAeA | c/B/A eA fBBd | ceAc dfBd | EFAB cAA |]
V: 2 clef=bass middle=d
z | A2A2 c2A2 | c2A2 d2d2 | c2A2 c2A2 | e2E2 a2A :|
z | a2[a2c'2] [a2d'2][a2c'2] | a2[a2c'2] d'2e'2 | a2[a2c'2] [a2d'2][a2c'2] |a2A2 a2A2 |
y | A2c2 d2c2 | A2c2 d2e2 | A2c2 B2d2 | e2E2 a2A |]


